svg/repo-push.svg

<svg height="1024" width="768" xmlns="http://www.w3.org/2000/svg">
  <path d="M448 320l-192 256h128v448h128v-448h128l-192-256z m-192 0h64v-64h-64v64z m64-192h-64v64h64v-64z m384-128c-32 0-608 0-640 0s-64 32-64 64 0 736 0 768 32 64 64 64 128 0 128 0v128l128-128v-128h-128v64s-79 0-96 0-32-14-32-32 0-96 0-96h256v-64h-128v-576h513l-1 576h-128v64h128s0 79 0 96-15 32-32 32-96 0-96 0v64s96 0 128 0 64-32 64-64 0-736 0-768-32-64-64-64z" />
</svg>

<svg height="1024" width="768" xmlns="http://www.w3.org/2000/svg">
  <path d="M448 320L256 576h128v448h128V576h128L448 320zM256 320h64v-64h-64V320zM320 128h-64v64h64V128zM704 0H64C64 0 0 0 0 64v768c0 64 64 64 64 64h128v128l128-128V768H192v64h-64c-64 0-64-64-64-64v-64h256v-64H192V64h513l-1 576H576v64h128v64c0 61.625-64 64-64 64h-64v64h128c0 0 64-1.125 64-64V64C768 0 704 0 704 0z" />
</svg>
